X:5024
T:Pat Finnertys No. 1
O:england
M:4/4
L:1/8
C:Pat Finnerty
R:Reel
N:Pat Finnerty is a piper/whistle player from Co. Longford
K:Am
|:eA .A.A.A(3 ~G3B|~A3 B cde^f| ge ~e2 ageg|^fdef gafg|
eA .A.A.A (3~G3B|~A3 B cde^f|  ge ~e2 aged |1BA^GB A3 d:|2cABG A2 Bd|
|:eg ~g2 a2a^f|g^feg fdef| g^fed BGE^F|GB ~B2 cBAG|
A3 B AE ~E2|A3 B cde^f|ge ~e2 aged|1BA^GB A2 (3Bcd:|2BAGB A3 z||
